!!!!SEGMENT: pl-cz--i-124_zeidler-jozef--boze-abrahamow.krn
!!!cenid: 18xx:285
!!!COM: Zeidler, Józef
!!!COM-rismid: pe30003401
!!!CDT: ~1744-1806
!!!CNT: Polish
!!!OTL: Boże Abrahamów
!!!PDT:
!!!AGN: Sacred
!!!SMS-siglum: PL-CZ
!!!SMS-shelfmark: I-124
!!!SMS-shelfwork: W
!!!NIFC-rismid:
!!!URL-scan: http://repozytorium.nifc.pl/skany/pl-cz-nut--i-124
!!!ONB-nifc:
**kern	**fba	**text	**text	**kern	**text	**text	**text	**text	**text	**text	**text	**text	**text	**text	**text	**text	**text	**text	**text	**text	**text	**text	**kern	**text	**text	**text	**text	**text	**text	**text	**text	**text	**text	**text	**text	**text	**text	**text	**text	**text	**text	**kern	**text	**text	**text	**text	**text	**text	**text	**text	**text	**text	**text	**text	**text	**text	**text	**text	**text	**text	**kern	**text	**text	**text	**text	**text	**text	**text	**text	**text	**text	**text	**text	**text	**text	**text	**text	**text	**text	**kern	**dynam	**kern	**dynam	**kern	**kern	**kern
*part10	*part10	*part10	*part10	*part9	*part9	*part9	*part9	*part9	*part9	*part9	*part9	*part9	*part9	*part9	*part9	*part9	*part9	*part9	*part9	*part9	*part9	*part9	*part8	*part8	*part8	*part8	*part8	*part8	*part8	*part8	*part8	*part8	*part8	*part8	*part8	*part8	*part8	*part8	*part8	*part8	*part8	*part7	*part7	*part7	*part7	*part7	*part7	*part7	*part7	*part7	*part7	*part7	*part7	*part7	*part7	*part7	*part7	*part7	*part7	*part7	*part6	*part6	*part6	*part6	*part6	*part6	*part6	*part6	*part6	*part6	*part6	*part6	*part6	*part6	*part6	*part6	*part6	*part6	*part6	*part5	*part5	*part4	*part4	*part3	*part2	*part1
*staff10	*staff10	*staff10	*staff10	*staff9	*staff9	*staff9	*staff9	*staff9	*staff9	*staff9	*staff9	*staff9	*staff9	*staff9	*staff9	*staff9	*staff9	*staff9	*staff9	*staff9	*staff9	*staff9	*staff8	*staff8	*staff8	*staff8	*staff8	*staff8	*staff8	*staff8	*staff8	*staff8	*staff8	*staff8	*staff8	*staff8	*staff8	*staff8	*staff8	*staff8	*staff8	*staff7	*staff7	*staff7	*staff7	*staff7	*staff7	*staff7	*staff7	*staff7	*staff7	*staff7	*staff7	*staff7	*staff7	*staff7	*staff7	*staff7	*staff7	*staff7	*staff6	*staff6	*staff6	*staff6	*staff6	*staff6	*staff6	*staff6	*staff6	*staff6	*staff6	*staff6	*staff6	*staff6	*staff6	*staff6	*staff6	*staff6	*staff6	*staff5	*	*staff4	*	*staff3	*staff2	*staff1
*Iorgan	*	*	*	*Iempty	*	*	*	*	*	*	*	*	*	*	*	*	*	*	*	*	*	*	*Itenor	*	*	*	*	*	*	*	*	*	*	*	*	*	*	*	*	*	*	*Ialto	*	*	*	*	*	*	*	*	*	*	*	*	*	*	*	*	*	*	*Ivox	*	*	*	*	*	*	*	*	*	*	*	*	*	*	*	*	*	*	*Iempty	*	*Icor	*	*Iclars	*Iclars	*Iflt
*I"Organo	*	*	*	*I"Baſso	*	*	*	*	*	*	*	*	*	*	*	*	*	*	*	*	*	*	*I"Tenore	*	*	*	*	*	*	*	*	*	*	*	*	*	*	*	*	*	*	*I"Alto	*	*	*	*	*	*	*	*	*	*	*	*	*	*	*	*	*	*	*I"Canto	*	*	*	*	*	*	*	*	*	*	*	*	*	*	*	*	*	*	*I"Secundo in Es	*	*I"Corni 1mo in Es	*	*I"Clarinetto in B♭	*I"Clarinetto 1mo.	*I"Flauto in Es
*I'Org.	*	*	*	*I'B.	*	*	*	*	*	*	*	*	*	*	*	*	*	*	*	*	*	*	*I'T.	*	*	*	*	*	*	*	*	*	*	*	*	*	*	*	*	*	*	*I'A.	*	*	*	*	*	*	*	*	*	*	*	*	*	*	*	*	*	*	*I'S.	*	*	*	*	*	*	*	*	*	*	*	*	*	*	*	*	*	*	*I'C. in Es	*	*I'C. in Es	*	*I'Cl. in B♭	*I'Cl. in B♭	*I'Fl.
*clefF4	*	*	*	*clefF4	*	*	*	*	*	*	*	*	*	*	*	*	*	*	*	*	*	*	*clefC4	*	*	*	*	*	*	*	*	*	*	*	*	*	*	*	*	*	*	*clefC3	*	*	*	*	*	*	*	*	*	*	*	*	*	*	*	*	*	*	*clefC1	*	*	*	*	*	*	*	*	*	*	*	*	*	*	*	*	*	*	*clefG2	*	*clefG2	*	*clefG2	*clefG2	*clefG2
*1Trd-1c-1	*	*	*	*	*	*	*	*	*	*	*	*	*	*	*	*	*	*	*	*	*	*	*	*	*	*	*	*	*	*	*	*	*	*	*	*	*	*	*	*	*	*	*	*	*	*	*	*	*	*	*	*	*	*	*	*	*	*	*	*	*	*	*	*	*	*	*	*	*	*	*	*	*	*	*	*	*	*	*	*ITrd5c9	*	*ITrd5c9	*	*ITrd1c2	*ITrd1c2	*ITrd-2c-3
*k[f#c#]	*	*	*	*k[b-e-a-]	*	*	*	*	*	*	*	*	*	*	*	*	*	*	*	*	*	*	*k[b-e-a-]	*	*	*	*	*	*	*	*	*	*	*	*	*	*	*	*	*	*	*k[b-e-a-]	*	*	*	*	*	*	*	*	*	*	*	*	*	*	*	*	*	*	*k[b-e-a-]	*	*	*	*	*	*	*	*	*	*	*	*	*	*	*	*	*	*	*k[b-e-a-]	*	*k[b-e-a-]	*	*k[b-e-a-]	*k[b-e-a-]	*k[b-e-a-]
*E-:	*	*	*	*E-:	*	*	*	*	*	*	*	*	*	*	*	*	*	*	*	*	*	*	*E-:	*	*	*	*	*	*	*	*	*	*	*	*	*	*	*	*	*	*	*E-:	*	*	*	*	*	*	*	*	*	*	*	*	*	*	*	*	*	*	*E-:	*	*	*	*	*	*	*	*	*	*	*	*	*	*	*	*	*	*	*E-:	*	*E-:	*	*E-:	*E-:	*E-:
*M2/2	*	*	*	*M2/2	*	*	*	*	*	*	*	*	*	*	*	*	*	*	*	*	*	*	*M2/2	*	*	*	*	*	*	*	*	*	*	*	*	*	*	*	*	*	*	*M2/2	*	*	*	*	*	*	*	*	*	*	*	*	*	*	*	*	*	*	*M2/2	*	*	*	*	*	*	*	*	*	*	*	*	*	*	*	*	*	*	*M2/2	*	*M2/2	*	*M2/2	*M2/2	*M2/2
*met(c|)	*	*	*	*met(c|)	*	*	*	*	*	*	*	*	*	*	*	*	*	*	*	*	*	*	*met(c|)	*	*	*	*	*	*	*	*	*	*	*	*	*	*	*	*	*	*	*met(c|)	*	*	*	*	*	*	*	*	*	*	*	*	*	*	*	*	*	*	*met(c|)	*	*	*	*	*	*	*	*	*	*	*	*	*	*	*	*	*	*	*met(c|)	*	*met(c|)	*	*met(c|)	*met(c|)	*met(c|)
*>[A,A,B]	*	*	*	*>[A,A,B]	*	*	*	*	*	*	*	*	*	*	*	*	*	*	*	*	*	*	*>[A,A,B]	*	*	*	*	*	*	*	*	*	*	*	*	*	*	*	*	*	*	*>[A,A,B]	*	*	*	*	*	*	*	*	*	*	*	*	*	*	*	*	*	*	*>[A,A,B]	*	*	*	*	*	*	*	*	*	*	*	*	*	*	*	*	*	*	*>[A,A,B]	*	*>[A,A,B]	*	*>[A,A,B]	*>[A,A,B]	*>[A,A,B]
*>A	*	*	*	*>A	*	*	*	*	*	*	*	*	*	*	*	*	*	*	*	*	*	*	*>A	*	*	*	*	*	*	*	*	*	*	*	*	*	*	*	*	*	*	*>A	*	*	*	*	*	*	*	*	*	*	*	*	*	*	*	*	*	*	*>A	*	*	*	*	*	*	*	*	*	*	*	*	*	*	*	*	*	*	*>A	*	*>A	*	*>A	*>A	*>A
=1	=1	=1	=1	=1	=1	=1	=1	=1	=1	=1	=1	=1	=1	=1	=1	=1	=1	=1	=1	=1	=1	=1	=1	=1	=1	=1	=1	=1	=1	=1	=1	=1	=1	=1	=1	=1	=1	=1	=1	=1	=1	=1	=1	=1	=1	=1	=1	=1	=1	=1	=1	=1	=1	=1	=1	=1	=1	=1	=1	=1	=1	=1	=1	=1	=1	=1	=1	=1	=1	=1	=1	=1	=1	=1	=1	=1	=1	=1	=1	=1	=1	=1	=1	=1	=1	=1
*4\right	*	*	*	*2\right	*	*	*	*	*	*	*	*	*	*	*	*	*	*	*	*	*	*	*2\right	*	*	*	*	*	*	*	*	*	*	*	*	*	*	*	*	*	*	*2\right	*	*	*	*	*	*	*	*	*	*	*	*	*	*	*	*	*	*	*	*	*	*	*	*	*	*	*	*	*	*	*	*	*	*	*	*	*	*	*	*2\right	*	*	*4\right	*4\right
!LO:TX:a:t=P:problem:partia organów nienazwana, zapisana pół tonu niżej, w tonacji D-dur z adnotacją "Jak iest, bes transpozycij". Tu zapisana w tonacji wszystkich pozostałych partii	!	!	!	!	!	!	!	!	!	!	!	!	!	!	!	!	!	!	!	!	!	!	!	!	!	!	!	!	!	!	!	!	!	!	!	!	!	!	!	!	!	!	!	!	!	!	!	!	!	!	!	!	!	!	!	!	!	!	!	!	!	!	!	!	!	!	!	!	!	!	!	!	!	!	!	!	!	!	!	!	!	!	!	!	!	!
!LO:TX:b:t=P:problem:tekst powtórzenia podpisany nad systemem	!	!	!	!	!	!	!	!	!	!	!	!	!	!	!	!	!	!	!	!	!	!	!	!	!	!	!	!	!	!	!	!	!	!	!	!	!	!	!	!	!	!	!	!	!	!	!	!	!	!	!	!	!	!	!	!	!	!	!	!	!	!	!	!	!	!	!	!	!	!	!	!	!	!	!	!	!	!	!	!	!	!	!	!	!	!
!	!	!	!	!	!	!	!	!	!	!	!	!	!	!	!	!	!	!	!	!	!	!	!	!	!	!	!	!	!	!	!	!	!	!	!	!	!	!	!	!	!	!	!	!	!	!	!	!	!	!	!	!	!	!	!	!	!	!	!	!	!	!	!	!	!	!	!	!	!	!	!	!	!	!	!	!	!	!	!	!	!	!	!	!LO:TX:a:t=P:problem:nienazwana partia cl. II	!	!
!	!	!	!	!	!	!	!	!	!	!	!	!	!	!	!	!	!	!	!	!	!	!	!LO:TX:a:t=P:problem:przy kluczu nieprecyzyjnie napisane bemole, wyglądają jak "as", "es" i "ges"	!	!	!	!	!	!	!	!	!	!	!	!	!	!	!	!	!	!	!	!	!	!	!	!	!	!	!	!	!	!	!	!	!	!	!	!	!	!LO:TX:a:t=P:problem:przy kluczu bemol "es" oktawę wyżej, bemol "ges" zamiast "as"	!	!	!	!	!	!	!	!	!	!	!	!	!	!	!	!	!	!	!	!	!	!	!	!	!
!	!	!	!	!LO:TX:a:B:t=Adagio	!	!	!	!	!	!	!	!	!	!	!	!	!	!	!	!	!	!	!LO:TX:a:B:t=Adagio	!	!	!	!	!	!	!	!	!	!	!	!	!	!	!	!	!	!	!LO:TX:a:B:t=Adagio	!	!	!	!	!	!	!	!	!	!	!	!	!	!	!	!	!	!	!LO:TX:a:B:t=Adagio	!	!	!	!	!	!	!	!	!	!	!	!	!	!	!	!	!	!	!LO:TX:a:t=Adagio	!	!LO:TX:a:t=Adagio	!	!	!LO:TX:a:t=Adagio	!LO:TX:a:t=Adagio
*	*	*	*above	*	*	*	*	*	*	*	*	*	*	*	*	*	*	*	*	*	*	*	*	*	*	*	*	*	*	*	*	*	*	*	*	*	*	*	*	*	*	*	*	*	*	*	*	*	*	*	*	*	*	*	*	*	*	*	*	*	*	*	*	*	*	*	*	*	*	*	*	*	*	*	*	*	*	*	*	*	*	*	*	*	*	*
4E-\	8 5 3	1. Bo-	Od-	2E-\	1. Bo-	Od-	2. Kro-	Two-	3. Bo-	Spuść	4. Kro-	Zmi-	5. Nie	Dla	6. Kro-	U-	7. Bo-	U-	8. Ty	Wstaw	9. My	Po-	2B-\	1. Bo-	Od-	2. Kro-	Two-	3. Bo-	Spuść	4. Kro-	Zmi-	5. Nie	Dla	6. Kró-	U-	7. Bo-	U-	8. Ty	Wstaw	9. My	Po-	2g\	1. Bo-	Od-	2. Kro-	Two-	3. Bo-	Spuść	4. Kro-	Zmi-	5. Nie	Dla	6. Kro-	U-	7. Bo-	U-	8. Ty	Wstaw	9. My	Po-	4.ee-\	1. Bo-	Od-	2. Kro-	Two-	3. Bo-	Spuść	4. Kro-	Zmi-	5. Nie	Dla	6. Kró-	U-	7. Bo-	U-	8. Ty	Wstaw	9. My	Po-	(2E-/	.	(2e-\	.	2g/	4.ee-\	4.eee-\
4F\	 -5 3	.	.	.	.	.	.	.	.	.	.	.	.	.	.	.	.	.	.	.	.	.	.	.	.	.	.	.	.	.	.	.	.	.	.	.	.	.	.	.	.	.	.	.	.	.	.	.	.	.	.	.	.	.	.	.	.	.	.	.	.	.	.	.	.	.	.	.	.	.	.	.	.	.	.	.	.	.	.	.	.	.	.	.	.	.
*	*	*	*	*	*	*	*	*	*	*	*	*	*	*	*	*	*	*	*	*	*	*	*	*	*	*	*	*	*	*	*	*	*	*	*	*	*	*	*	*	*	*	*	*	*	*	*	*	*	*	*	*	*	*	*	*	*	*	*	*	*	*	*	*	*	*	*	*	*	*	*	*	*	*	*	*	*	*	*	*	*	*	*	*	*16\right	*16\right
.	.	.	.	.	.	.	.	.	.	.	.	.	.	.	.	.	.	.	.	.	.	.	.	.	.	.	.	.	.	.	.	.	.	.	.	.	.	.	.	.	.	.	.	.	.	.	.	.	.	.	.	.	.	.	.	.	.	.	.	.	16dd\LL	.	.	.	.	.	.	.	.	.	.	.	.	.	.	.	.	.	.	.	.	.	.	.	16dd\LL	16ddd\LL
.	.	.	.	.	.	.	.	.	.	.	.	.	.	.	.	.	.	.	.	.	.	.	.	.	.	.	.	.	.	.	.	.	.	.	.	.	.	.	.	.	.	.	.	.	.	.	.	.	.	.	.	.	.	.	.	.	.	.	.	.	16cc\JJ	.	.	.	.	.	.	.	.	.	.	.	.	.	.	.	.	.	.	.	.	.	.	.	16cc\JJ	16ccc\JJ
*	*	*	*	*	*	*	*	*	*	*	*	*	*	*	*	*	*	*	*	*	*	*	*	*	*	*	*	*	*	*	*	*	*	*	*	*	*	*	*	*	*	*	*	*	*	*	*	*	*	*	*	*	*	*	*	*	*	*	*	*	*2\right	*	*	*	*	*	*	*	*	*	*	*	*	*	*	*	*	*	*	*	*	*	*	*	*2\right	*2\right
4G\	  3_	-ze	-dal	(4G\	-że	-dal	-lu	-ja	-że	deszcz	-lu	-łuj	karz	zło-	-lu	-życz	-że	-życz	o	się	cie	-ki	2B-\	-że	-dal	-lu	-ja	-że	deszcz	-lu	-łuj	karz	zło-	-lu	-życz	-że	-życz	o	się	cie	-ki	2g\	-że	-dal	-lu	-ja	-że	deszcz	-lu	-łuj	karz	zło-	-lu	-życz	-że	-życz	o	się	cie	-ki	2b-\	-że	-dal	-lu	-ja	-że	deszcz	-lu	-łuj	karz	zło-	-lu	-życz	-że	-życz	o	się	cie	-ki	(2E-/)	.	(2e-\)	.	2g/	2b-\	2bb-\
4E-\	.	.	.	4E-\)	.	.	.	.	.	.	.	.	.	.	.	.	.	.	.	.	.	.	.	.	.	.	.	.	.	.	.	.	.	.	.	.	.	.	.	.	.	.	.	.	.	.	.	.	.	.	.	.	.	.	.	.	.	.	.	.	.	.	.	.	.	.	.	.	.	.	.	.	.	.	.	.	.	.	.	.	.	.	.	.	.	.
=2	=2	=2	=2	=2	=2	=2	=2	=2	=2	=2	=2	=2	=2	=2	=2	=2	=2	=2	=2	=2	=2	=2	=2	=2	=2	=2	=2	=2	=2	=2	=2	=2	=2	=2	=2	=2	=2	=2	=2	=2	=2	=2	=2	=2	=2	=2	=2	=2	=2	=2	=2	=2	=2	=2	=2	=2	=2	=2	=2	=2	=2	=2	=2	=2	=2	=2	=2	=2	=2	=2	=2	=2	=2	=2	=2	=2	=2	=2	=2	=2	=2	=2	=2	=2	=2	=2
4A-\	 3 8_	A-	te	8AA-/L	A-	te	nad	o-	A-	na	nad	się	nas	-ści	nad	nam	A-	nam	Ma-	za	zaś	nas	2c\	A-	te	nad	O-	A-	na	nad	się	nas	-ści	nad	nam	A-	nam	Ma-	za	zaś	nas	2a-\	A-	te	nad	O-	A-	na	nad	się	nas	-ści	nad	nam	A-	nam	Ma-	za	zaś	nas	2cc\	A-	te	nad	O-	A-	na	nad	się	nas	-ści	nad	nam	A-	nam	Ma-	za	zaś	nas	2E-/)	.	2e-\)	.	2a-/	2cc\	2ccc\
.	.	.	.	8BB-/	.	.	.	.	.	.	.	.	.	.	.	.	.	.	.	.	.	.	.	.	.	.	.	.	.	.	.	.	.	.	.	.	.	.	.	.	.	.	.	.	.	.	.	.	.	.	.	.	.	.	.	.	.	.	.	.	.	.	.	.	.	.	.	.	.	.	.	.	.	.	.	.	.	.	.	.	.	.	.	.	.	.
4AA-/	.	.	.	8C/	.	.	.	.	.	.	.	.	.	.	.	.	.	.	.	.	.	.	.	.	.	.	.	.	.	.	.	.	.	.	.	.	.	.	.	.	.	.	.	.	.	.	.	.	.	.	.	.	.	.	.	.	.	.	.	.	.	.	.	.	.	.	.	.	.	.	.	.	.	.	.	.	.	.	.	.	.	.	.	.	.	.
.	.	.	.	8D/J	.	.	.	.	.	.	.	.	.	.	.	.	.	.	.	.	.	.	.	.	.	.	.	.	.	.	.	.	.	.	.	.	.	.	.	.	.	.	.	.	.	.	.	.	.	.	.	.	.	.	.	.	.	.	.	.	.	.	.	.	.	.	.	.	.	.	.	.	.	.	.	.	.	.	.	.	.	.	.	.	.	.
.	.	.	.	.	.	.	.	.	.	.	.	.	.	.	.	.	.	.	.	.	.	.	.	.	.	.	.	.	.	.	.	.	.	.	.	.	.	.	.	.	.	16qqg/LL	.	.	.	.	.	.	.	.	.	.	.	.	.	.	.	.	.	.	16qqb-/LL	.	.	.	.	.	.	.	.	.	.	.	.	.	.	.	.	.	.	.	.	.	.	.	16qqb-/LL	16qqbb-/LL
.	.	.	.	.	.	.	.	.	.	.	.	.	.	.	.	.	.	.	.	.	.	.	.	.	.	.	.	.	.	.	.	.	.	.	.	.	.	.	.	.	.	16qqf/JJ	.	.	.	.	.	.	.	.	.	.	.	.	.	.	.	.	.	.	16qqa-/JJ	.	.	.	.	.	.	.	.	.	.	.	.	.	.	.	.	.	.	.	.	.	.	.	16qqa-/JJ	16qqaa-/JJ
*	*	*	*	*	*	*	*	*	*	*	*	*	*	*	*	*	*	*	*	*	*	*	*	*	*	*	*	*	*	*	*	*	*	*	*	*	*	*	*	*	*	*	*	*	*	*	*	*	*	*	*	*	*	*	*	*	*	*	*	*	*	*	*	*	*	*	*	*	*	*	*	*	*	*	*	*	*	*	*	*4\right	*	*4\right	*	*	*	*
!	!	!	!	!	!	!	!	!	!	!	!	!	!	!	!	!	!	!	!	!	!	!	!	!	!	!	!	!	!	!	!	!	!	!	!	!	!	!	!	!	!	!	!	!	!	!	!	!	!	!	!	!	!	!	!	!	!	!	!	!	!	!	!	!	!	!	!	!	!	!	!	!	!	!	!	!	!	!	!	!	!LO:HP:a	!	!	!	!	!
4.E-\	 3 8	-bra-	szu-	4E-\	-bra-	su-	król-	-patrz-	-bra-	Zie-	krol-	w cza-	Bo-	A-	krol-	desz-	-bra-	dzdzu	-ry-	na-	za	w ży-	4B-\	-bra-	su-	krol-	-patrz-	-bra-	Zie-	krol-	w cza-	Bo-	A-	król-	dzdzu	-bra-	dzdzu	-ry-	na-	za	w ży-	(4.e-\	-bra-	su-	krol-	-patrz-	-bra-	Zie-	krol-	w cza-	Bo-	A-	krol-	desz-	-bra-	dzdzu	-ry-	na-	za	w ży-	(4.g\	-bra-	su-	Krol-	-patrz-	-bra-	Zie-	krol-	w cza-	Bo-	A-	krol-	Desz-	-bra-	dzdzu	-ry-	na-	za	w ży-	(4.e-\	<	(4.g\	<	4.e-/	4.g\	4.gg\
.	.	.	.	4D\	-ha-	.	.	.	-ha-	.	.	.	.	.	.	.	-ha-	ty-	.	.	.	.	4B-\	-ha-	.	.	.	-ha-	.	.	.	.	.	.	.	-ha-	ty-	.	.	.	.	.	.	.	.	.	.	.	.	.	.	.	.	.	.	.	.	.	.	.	.	.	.	.	.	.	.	.	.	.	.	.	.	.	.	.	.	.	.	.	.	.	.	.	.	.
*16\right	*	*	*	*	*	*	*	*	*	*	*	*	*	*	*	*	*	*	*	*	*	*	*	*	*	*	*	*	*	*	*	*	*	*	*	*	*	*	*	*	*	*	*	*	*	*	*	*	*	*	*	*	*	*	*	*	*	*	*	*	*	*	*	*	*	*	*	*	*	*	*	*	*	*	*	*	*	*	*	*8\right	*	*8\right	*	*	*8\right	*8\right
16F\LL	  3_	.	.	.	.	.	.	.	.	.	.	.	.	.	.	.	.	.	.	.	.	.	.	.	.	.	.	.	.	.	.	.	.	.	.	.	.	.	.	.	.	8f\)	-ha-	.	.	.	-ha-	.	.	.	.	.	.	.	-ha-	ty-	.	.	.	.	8a-\)	-ha-	.	.	.	-ha-	.	.	.	.	.	.	.	-ha-	ty-	.	.	.	.	8f\)	[	8a-\)	[	8f/	8a-\	8aa-\
16D\JJ	.	.	.	.	.	.	.	.	.	.	.	.	.	.	.	.	.	.	.	.	.	.	.	.	.	.	.	.	.	.	.	.	.	.	ty-	.	.	.	.	.	.	.	.	.	.	.	.	.	.	.	.	.	.	.	.	.	.	.	.	.	.	.	.	.	.	.	.	.	.	.	.	.	.	.	.	.	.	.	.	.	.	.	.	.	.	.
=3	=3	=3	=3	=3	=3	=3	=3	=3	=3	=3	=3	=3	=3	=3	=3	=3	=3	=3	=3	=3	=3	=3	=3	=3	=3	=3	=3	=3	=3	=3	=3	=3	=3	=3	=3	=3	=3	=3	=3	=3	=3	=3	=3	=3	=3	=3	=3	=3	=3	=3	=3	=3	=3	=3	=3	=3	=3	=3	=3	=3	=3	=3	=3	=3	=3	=3	=3	=3	=3	=3	=3	=3	=3	=3	=3	=3	=3	=3	=3	=3	=3	=3	=3	=3	=3	=3
1E-;	 5 3	-mow	-szą	1E-;	-mow	-szą	-mi	-ność	-mów	-mie	-mi	-sie	-że	-bach	-mi	-czu	-mów	-le	-a	-mi	to	-ciu	1B-;	-mow	-szą	-mi	-ność	-mów	-mie	-mi	-sie	-że	-bach	-mi	-le	-mów	-le	-a	-mi	to	-ciu	1g;	-mow	-szą	-mi	-ność	-mów	-mie	-mi	-sie	-że	-bach	-mi	-czu	-mow	-le	-a	-mi	to	-ciu	1b-;	-mów	-szą	-mi	-ność	-mów	-mie	-mi	-sie.	-że	-bach	-mi	-czu	-mów	-le	-a	-mi	to	-ciu	1g;	.	1b-;	.	1g;	1b-;	1bb-;
=4	=4	=4	=4	=4	=4	=4	=4	=4	=4	=4	=4	=4	=4	=4	=4	=4	=4	=4	=4	=4	=4	=4	=4	=4	=4	=4	=4	=4	=4	=4	=4	=4	=4	=4	=4	=4	=4	=4	=4	=4	=4	=4	=4	=4	=4	=4	=4	=4	=4	=4	=4	=4	=4	=4	=4	=4	=4	=4	=4	=4	=4	=4	=4	=4	=4	=4	=4	=4	=4	=4	=4	=4	=4	=4	=4	=4	=4	=4	=4	=4	=4	=4	=4	=4	=4	=4
*	*	*	*	*	*	*	*	*	*	*	*	*	*	*	*	*	*	*	*	*	*	*	*	*	*	*	*	*	*	*	*	*	*	*	*	*	*	*	*	*	*	*	*	*	*	*	*	*	*	*	*	*	*	*	*	*	*	*	*	*	*	*	*	*	*	*	*	*	*	*	*	*	*	*	*	*	*	*	*	*2\right	*	*	*	*	*	*
4E-\	 5 3	wie-	wi-	4E-\	wie-	wi-	wszech-	wszyst-	Bo-	że-	Swię-	nad	iak	wszyst-	z wy-	kto-	z wy-	il-	z wszyst-	do	chwa-	tym	4B-\	wie-	wi-	wszech-	wszyst-	Bo-	że-	Swię-	nad	iak	wszyst-	zwy-	il-	z wy-	il-	z wszy-	do	chwa-	tym	4g\	wie-	wi-	wszech-	wszyst-	Bo-	że-	Swię-	nad	iak	wszyst-	z wy-	któ-	z wy-	il-	z wszyst-	do	chwa-	tym	4b-\	wie-	wi-	wszech-	wszyst-	Bo-	że-	Swię-	nad	iak	wszyst-	zwy-	kto-	z wy-	il-	z wszyst-	do	chwa-	tym	2e-\	.	2g\	.	4g/	4b-\	4bb-\
4G\	 6 3_	-ku-	-do-	4GG/	-ku-	-do-	-mo-	-ko	-że	-by	-ty	na-	za	-ka	-so-	-re-	-so-	-le	-kie-	Bo-	-lić	do-	4B-\	-ku-	-docz-	-mo-	-ko	-że	-by	-ty	na-	za	-ka	-so-	-le	-so-	-le	-stkie-	Bo-	-lić	do-	4g\	-ku-	-docz-	-mo-	-ko	-że	-by	-ty	na-	za	-ka	-so-	-re-	-so-	-le	-kie-	Bo-	-lić	do-	(8ee-\L	-ku-	-docz-	-mo-	-ko	-że	-by	-ty	na-	za	-ka	-so-	-re-	-so-	-le	-kie-	Bo-	-lić	do-	.	.	.	.	4g/	8ee-\L	8eee-\L
.	 5 x	.	.	.	.	.	.	.	.	.	.	.	.	.	.	.	.	.	.	.	.	.	.	.	.	.	.	.	.	.	.	.	.	.	.	.	.	.	.	.	.	.	.	.	.	.	.	.	.	.	.	.	.	.	.	.	.	.	.	.	8dd\J)	.	.	.	.	.	.	.	.	.	.	.	.	.	.	.	.	.	.	.	.	.	.	.	8dd\J	8ddd\J
4A-\	 3 8	-i-	-czne	4AA-/	-is-	-czne	-gą-	spra-	mi-	Cie	nad	-mi	E-	wys-	-ko-	-go	-ko-	nam	-mi	-ga	bę-	-cze-	4c\	-is-	-ne	-gą-	spra-	mi-	Cie	nad	-mi	E-	wys-	-ko-	nam	-ko-	nam	-mi	-ga	bę-	-cze-	4a-\	-is-	-ne	-gą-	spra-	mi-	Cie	nad	-mi	E-	wys-	-ko-	-go	-ko-	nam	-mi	-ga	bę-	-czes-	4cc\	-is-	-ne	-gą-	spra-	mi-	Cie	nad	-mi	E-	wys-	-ko-	-go	-ko-	nam	-mi	-ga	bę-	-czes-	4r	.	4r	.	4a-/	4cc\	4ccc\
*	*	*	*	*	*	*	*	*	*	*	*	*	*	*	*	*	*	*	*	*	*	*	*	*	*	*	*	*	*	*	*	*	*	*	*	*	*	*	*	*	*	*	*	*	*	*	*	*	*	*	*	*	*	*	*	*	*	*	*	*	*	*	*	*	*	*	*	*	*	*	*	*	*	*	*	*	*	*	*	*	*	*	*	*8\right	*	*
4F\	  3	-ste	Ka-	8F\L	-ty	Ka-	-cy	-wić	-ło-	lud	Swię-	grzesz-	-li-	-chła	-ści	po-	-ści	po-	Swię-	grzesz-	-dziem	-snem	4f\	-ty	Ka-	-cy	-wić	-ło-	lud	Swię-	grze-	-li-	-chła	-ści	po-	-ści	po-	Swię-	grze-	-dziem	-snem	8cc\L	-ty	Ka-	-cy	-wić	-ło-	lud	Swię-	grze-	-li-	-chła	-ści	po-	-ści	po-	Swię-	grzesz-	-dziem	-nem	8aa-\L	-ty	Ka-	-cy	-wić	-ło-	lud	Swię-	grzesz-	-li-	-chła	-ści	po-	-ści	po-	Swię-	grze-	-dziem	-nem	4f\	.	4a-\	.	8cc\L	8aa-\L	8aaa-\L
.	 8 3	.	.	8A-\J	.	.	.	.	.	.	.	.	.	.	.	.	.	.	.	.	.	.	.	.	.	.	.	.	.	.	.	.	.	.	.	.	.	.	.	.	.	8a-\J	.	.	.	.	.	.	.	.	.	.	.	.	.	.	.	.	.	.	8ff\J	.	.	.	.	.	.	.	.	.	.	.	.	.	.	.	.	.	.	.	.	.	.	8a-\J	8ff\J	8fff\J
=5	=5	=5	=5	=5	=5	=5	=5	=5	=5	=5	=5	=5	=5	=5	=5	=5	=5	=5	=5	=5	=5	=5	=5	=5	=5	=5	=5	=5	=5	=5	=5	=5	=5	=5	=5	=5	=5	=5	=5	=5	=5	=5	=5	=5	=5	=5	=5	=5	=5	=5	=5	=5	=5	=5	=5	=5	=5	=5	=5	=5	=5	=5	=5	=5	=5	=5	=5	=5	=5	=5	=5	=5	=5	=5	=5	=5	=5	=5	=5	=5	=5	=5	=5	=5	=5	=5
.	.	.	.	.	.	.	.	.	.	.	.	.	.	.	.	.	.	.	.	.	.	.	4qqe-/	.	.	.	.	.	.	.	.	.	.	.	.	.	.	.	.	.	.	4qqg/	.	.	.	.	.	.	.	.	.	.	.	.	.	.	.	.	.	.	8qee-/	.	.	.	.	.	.	.	.	.	.	.	.	.	.	.	.	.	.	.	.	.	.	.	4qqee-/	8qqeee-/
4B-\	 4 5	Pa-	-ka-	4B-\	Pa-	-ra-	Bo-	mo-	-sier-	wier-	-te-	-ne-	-a-	pa-	Nie-	-trze-	Nie-	-trze-	-te-	-ne-	Pa-	sta-	2d\	Pa-	-ra-	Bo-	mo-	-śier-	wier-	-te-	-szne-	-a-	na-	Nie-	-trze-	Nie-	-trze-	-te-	-szne-	Pa-	sta-	2f\	Pa-	-ra-	Bo-	mo-	-sier-	wier-	-te-	-szne-	-a-	pa-	Nie-	-trze-	Nie-	-trze-	-te-	-ne-	Pa-	sta-	2dd\	Pa-	-ra-	Bo-	mo-	-sier-	wier-	-te-	-ne-	-a-	pa-	Nie-	-trze-	Nie-	-trze-	-te-	-szne-	Pa-	sta-	2B-/	.	2f\	.	2f/	2dd\	2ddd\
4BB-/	.	.	.	4BB-/	.	.	.	.	.	.	.	.	.	.	.	.	.	.	.	.	.	.	.	.	.	.	.	.	.	.	.	.	.	.	.	.	.	.	.	.	.	.	.	.	.	.	.	.	.	.	.	.	.	.	.	.	.	.	.	.	.	.	.	.	.	.	.	.	.	.	.	.	.	.	.	.	.	.	.	.	.	.	.	.	.	.
.	.	.	.	.	.	.	.	.	.	.	.	.	.	.	.	.	.	.	.	.	.	.	8qqc/L	.	.	.	.	.	.	.	.	.	.	.	.	.	.	.	.	.	.	.	.	.	.	.	.	.	.	.	.	.	.	.	.	.	.	.	.	.	.	.	.	.	.	.	.	.	.	.	.	.	.	.	.	.	.	.	.	.	.	.	.	.	.	.
.	.	.	.	.	.	.	.	.	.	.	.	.	.	.	.	.	.	.	.	.	.	.	8qqd/J	.	.	.	.	.	.	.	.	.	.	.	.	.	.	.	.	.	.	.	.	.	.	.	.	.	.	.	.	.	.	.	.	.	.	.	.	.	.	.	.	.	.	.	.	.	.	.	.	.	.	.	.	.	.	.	.	.	.	.	.	.	.	.
2E-/	.	-nie	-nie	2E-\	-nie	-nie	-że	-że	-ny	-ny	-mi	-mi	-sza	-sza	-ba	-ba	-ba	-ba	-mi	-mi	-nie	-nie	2e-\	-nie	-nié	-że	-że	-ny	-ny	-mi	-mi	-sza	-sza	-ba	-ba	-ba	-ba	-mi	-mi	-nie	-nie	2g\	-nie	-nie	-że	-że	-ny	-ny	-mi	-mi	-sza	-sza	-ba	-ba	-ba	-ba	-mi	-mi	-nie	-nie	2ee-\	-nie	-nie	-że	-że	-ny	-ny	-mi	-mi	-sza	-sza	-ba	-ba	-ba	-ba	-mi	-mi	-nie	-nie	2G/	.	2e-\	.	2g/	2ee-\	2eee-\
*	*	*	*below	*	*	*	*	*	*	*	*	*	*	*	*	*	*	*	*	*	*	*	*	*	*	*	*	*	*	*	*	*	*	*	*	*	*	*	*	*	*	*	*	*	*	*	*	*	*	*	*	*	*	*	*	*	*	*	*	*	*	*	*	*	*	*	*	*	*	*	*	*	*	*	*	*	*	*	*	*	*	*	*	*	*	*
=6:|!	=6:|!	=6:|!	=6:|!	=6:|!	=6:|!	=6:|!	=6:|!	=6:|!	=6:|!	=6:|!	=6:|!	=6:|!	=6:|!	=6:|!	=6:|!	=6:|!	=6:|!	=6:|!	=6:|!	=6:|!	=6:|!	=6:|!	=6:|!	=6:|!	=6:|!	=6:|!	=6:|!	=6:|!	=6:|!	=6:|!	=6:|!	=6:|!	=6:|!	=6:|!	=6:|!	=6:|!	=6:|!	=6:|!	=6:|!	=6:|!	=6:|!	=6:|!	=6:|!	=6:|!	=6:|!	=6:|!	=6:|!	=6:|!	=6:|!	=6:|!	=6:|!	=6:|!	=6:|!	=6:|!	=6:|!	=6:|!	=6:|!	=6:|!	=6:|!	=6:|!	=6:|!	=6:|!	=6:|!	=6:|!	=6:|!	=6:|!	=6:|!	=6:|!	=6:|!	=6:|!	=6:|!	=6:|!	=6:|!	=6:|!	=6:|!	=6:|!	=6:|!	=6:|!	=6:|!	=6:|!	=6:|!	=6:|!	=6:|!	=6:|!	=6:|!	=6:|!
*>B	*	*	*	*>B	*	*	*	*	*	*	*	*	*	*	*	*	*	*	*	*	*	*	*>B	*	*	*	*	*	*	*	*	*	*	*	*	*	*	*	*	*	*	*>B	*	*	*	*	*	*	*	*	*	*	*	*	*	*	*	*	*	*	*>B	*	*	*	*	*	*	*	*	*	*	*	*	*	*	*	*	*	*	*>B	*	*>B	*	*>B	*>B	*>B
!	!	!	!	!	!	!	!	!	!	!	!	!	!	!	!	!	!	!	!	!	!	!	!	!	!	!	!	!	!	!	!	!	!	!	!	!	!	!	!	!	!	!	!	!	!	!	!	!	!	!	!	!	!	!	!	!	!	!	!	!	!	!	!	!	!	!	!	!	!	!	!	!	!	!	!	!	!	!	!	!LO:TX:a:t=2)	!	!	!	!	!	!
!	!	!	!	!	!	!	!	!	!	!	!	!	!	!	!	!	!	!	!	!	!	!	!	!	!	!	!	!	!	!	!	!	!	!	!	!	!	!	!	!	!	!	!	!	!	!	!	!	!	!	!	!	!	!	!	!	!	!	!	!	!	!	!	!	!	!	!	!	!	!	!	!	!	!	!	!	!	!	!	!LO:TX:a:t=P:problem:dziwne kropki przy nutach	!	!	!	!	!	!
*	*	*	*	*	*	*	*	*	*	*	*	*	*	*	*	*	*	*	*	*	*	*	*	*	*	*	*	*	*	*	*	*	*	*	*	*	*	*	*	*	*	*	*	*	*	*	*	*	*	*	*	*	*	*	*	*	*	*	*	*	*	*	*	*	*	*	*	*	*	*	*	*	*	*	*	*	*	*	*	*	*	*	*	*2\right	*	*
2E-/	3 8 5	Kto-	.	2E-\	Kto-	.	U-	.	Bo-	.	Bo	.	Spuść	.	O-	.	By	.	Spraw-	.	Ze	.	2B-\	Kto-	.	U-	.	Bo-	.	Bo	.	Spuść	.	O-	.	By	.	Spraw-	.	Ze	.	2ee-\	Kto-	.	U-	.	Bo-	.	Bo	.	Spuść	.	O-	.	By	.	Spraw-	.	Ze	.	(4.gg\	Kto-	.	U-	.	Bo-	.	Bo	.	Spuść	.	O-	.	By	.	Spraw-	.	Że	.	(2E-/	.	(2e-\	.	2ee-\	4.gg\	4.ggg\
.	 8 5	.	.	.	.	.	.	.	.	.	.	.	.	.	.	.	.	.	.	.	.	.	.	.	.	.	.	.	.	.	.	.	.	.	.	.	.	.	.	.	.	.	.	.	.	.	.	.	.	.	.	.	.	.	.	.	.	.	.	.	8ee-\)	.	.	.	.	.	.	.	.	.	.	.	.	.	.	.	.	.	.	.	.	.	.	.	8ee-\	8eee-\
4.G\	 6_ 5_	-re	.	4.C/	-re	.	-życz	.	-giem	.	po-	.	deszcz	.	-ży-	.	zby-	.	-cie	.	do-	.	4.c\	-re	.	-życz	.	-giem	.	po-	.	deszcz	.	-ży-	.	zby-	.	-cie	.	do-	.	4.g\	-re	.	-życz	.	-giem	.	po-	.	deszcz	.	-ży-	.	zby-	.	-cie	.	do-	.	4.ee-\	-re	.	-życz	.	-giem	.	po-	.	deszcz	.	-ży-	.	zby-	.	-cie	.	do-	.	2E-/)	.	2e-\)	.	4g/	4.ee-\	4.eee-\
.	.	.	.	.	.	.	.	.	.	.	.	.	.	.	.	.	.	.	.	.	.	.	.	.	.	.	.	.	.	.	.	.	.	.	.	.	.	.	.	.	.	.	.	.	.	.	.	.	.	.	.	.	.	.	.	.	.	.	.	.	.	.	.	.	.	.	.	.	.	.	.	.	.	.	.	.	.	.	.	.	.	.	.	4r	.	.
8A-\	x	za	.	8AA-/	za	.	nam	.	u-	.	-la	.	na	.	-wić	.	-tek	.	to	.	-zna-	.	8c\	za	.	nam	.	u-	.	-la	.	na	.	-wić	.	-tek	.	to	.	-zna-	.	8a-\	za	.	nam	.	u-	.	-la	.	na	.	-wić	.	-tek	.	to	.	-zna-	.	8cc\	za	.	nam	.	u-	.	-la	.	na	.	-wić	.	-tek	.	to	.	-zna-	.	.	.	.	.	.	8cc\	8ccc\
=7	=7	=7	=7	=7	=7	=7	=7	=7	=7	=7	=7	=7	=7	=7	=7	=7	=7	=7	=7	=7	=7	=7	=7	=7	=7	=7	=7	=7	=7	=7	=7	=7	=7	=7	=7	=7	=7	=7	=7	=7	=7	=7	=7	=7	=7	=7	=7	=7	=7	=7	=7	=7	=7	=7	=7	=7	=7	=7	=7	=7	=7	=7	=7	=7	=7	=7	=7	=7	=7	=7	=7	=7	=7	=7	=7	=7	=7	=7	=7	=7	=7	=7	=7	=7	=7	=7
!	!	!	!	!	!	!	!	!	!	!	!	!	!	!	!	!	!	!	!	!	!	!	!	!	!	!	!	!	!	!	!	!	!	!	!	!	!	!	!	!	!	!	!	!	!	!	!	!	!	!	!	!	!	!	!	!	!	!	!	!	!	!	!	!	!	!	!	!	!	!	!	!	!	!	!	!	!	!	!	!	!	!	!	!	!	!LO:LB:g=original
*	*	*	*	*	*	*	*	*	*	*	*	*	*	*	*	*	*	*	*	*	*	*	*	*	*	*	*	*	*	*	*	*	*	*	*	*	*	*	*	*	*	*	*	*	*	*	*	*	*	*	*	*	*	*	*	*	*	*	*	*	*	*	*	*	*	*	*	*	*	*	*	*	*	*	*	*	*	*	*	*	*	*	*	*4\right	*	*
!LO:TX:a:t=P:problem:w cyfrowaniu pod 8 coś jeszcze - bemol?	!	!	!	!	!	!	!	!	!	!	!	!	!	!	!	!	!	!	!	!	!	!	!	!	!	!	!	!	!	!	!	!	!	!	!	!	!	!	!	!	!	!	!	!	!	!	!	!	!	!	!	!	!	!	!	!	!	!	!	!	!	!	!	!	!	!	!	!	!	!	!	!	!	!	!	!	!	!	!	!	!	!	!	!	!	!
2A-\	 8	grze-	.	2F\	grze-	.	desz-	.	-zna-	.	na-	.	po-	.	po-	.	desz-	.	Swię-	.	-liś-	.	2f\	grze-	.	desz-	.	-zna-	.	na-	.	po-	.	po-	.	desz-	.	Swię-	.	-liś-	.	2cc\	grze-	.	desz-	.	-zna-	.	na-	.	po-	.	po-	.	desz-	.	Swię-	.	-liś-	.	(4.aa-\	grze-	.	desz-	.	-zna-	.	na-	.	po-	.	po-	.	desz-	.	Swię-	.	-liś-	.	2f\	.	2a-\	.	(4ff\	4.aa-\	4.aaa-\
.	 6 4	.	.	.	.	.	.	.	.	.	.	.	.	.	.	.	.	.	.	.	.	.	.	.	.	.	.	.	.	.	.	.	.	.	.	.	.	.	.	.	.	.	.	.	.	.	.	.	.	.	.	.	.	.	.	.	.	.	.	.	.	.	.	.	.	.	.	.	.	.	.	.	.	.	.	.	.	.	.	.	.	.	.	8ee-\L	.	.
.	.	.	.	.	.	.	.	.	.	.	.	.	.	.	.	.	.	.	.	.	.	.	.	.	.	.	.	.	.	.	.	.	.	.	.	.	.	.	.	.	.	.	.	.	.	.	.	.	.	.	.	.	.	.	.	.	.	.	.	.	8ff\)	.	.	.	.	.	.	.	.	.	.	.	.	.	.	.	.	.	.	.	.	.	.	8dd\J)	8ff\	8fff\
2B-\	 5_ 3_	-chy	.	2B-\	-chy	.	-czu	.	-wał	.	-sze	.	-la	.	-la	.	-czu	.	-ci	.	-my	.	2d\	-chy	.	-czu	.	-wał	.	-sze	.	-la	.	-la	.	-czu	.	-ci	.	-my	.	2dd\	-chy	.	-czu	.	-wał	.	-sze	.	-la	.	-la	.	-czu	.	-ci	.	-my	.	2ff\	-chy	.	-czu	.	-wał	.	-sze	.	-la	.	-la	.	-czu	.	-ci	.	-my	.	2B-/	.	2f\	.	2dd\	2ff\	2fff\
=8	=8	=8	=8	=8	=8	=8	=8	=8	=8	=8	=8	=8	=8	=8	=8	=8	=8	=8	=8	=8	=8	=8	=8	=8	=8	=8	=8	=8	=8	=8	=8	=8	=8	=8	=8	=8	=8	=8	=8	=8	=8	=8	=8	=8	=8	=8	=8	=8	=8	=8	=8	=8	=8	=8	=8	=8	=8	=8	=8	=8	=8	=8	=8	=8	=8	=8	=8	=8	=8	=8	=8	=8	=8	=8	=8	=8	=8	=8	=8	=8	=8	=8	=8	=8	=8	=8
!LO:LB:g=original	!	!	!	!LO:PB:g=original	!	!	!	!	!	!	!	!	!	!	!	!	!	!	!	!	!	!	!LO:PB:g=original	!	!	!	!	!	!	!	!	!	!	!	!	!	!	!	!	!	!	!LO:PB:g=original	!	!	!	!	!	!	!	!	!	!	!	!	!	!	!	!	!	!	!LO:PB:g=original	!	!	!	!	!	!	!	!	!	!	!	!	!	!	!	!	!	!	!	!	!	!	!	!	!
4.BB-/	 5 3	po-	.	4.BB-/	1. po-	.	2. tey	.	3. i	.	4. i	.	5. i	.	6. O-	.	7. nie	.	8. u	.	9. Twey	.	4.B-\	1. po-	.	2. tey	.	3. i	.	4. i	.	5. i	.	6. O-	.	7. nie	.	8. u	.	9. Twey	.	4.dd\	1. po-	.	2. tey	.	3. i	.	4. i	.	5. i	.	6. O-	.	7. nie	.	8. u	.	9. Twey	.	4.ff\	1. po-	.	2. tey	.	3. i	.	4. i	.	5. i	.	6. O-	.	7. nie	.	8. u	.	9. Twey	.	2B-/	.	2f\	.	8B-/L	4.ff\	4.fff\
.	.	.	.	.	.	.	.	.	.	.	.	.	.	.	.	.	.	.	.	.	.	.	.	.	.	.	.	.	.	.	.	.	.	.	.	.	.	.	.	.	.	.	.	.	.	.	.	.	.	.	.	.	.	.	.	.	.	.	.	.	.	.	.	.	.	.	.	.	.	.	.	.	.	.	.	.	.	.	.	.	.	.	.	8f/	.	.
.	.	.	.	.	.	.	.	.	.	.	.	.	.	.	.	.	.	.	.	.	.	.	.	.	.	.	.	.	.	.	.	.	.	.	.	.	.	.	.	.	.	.	.	.	.	.	.	.	.	.	.	.	.	.	.	.	.	.	.	.	.	.	.	.	.	.	.	.	.	.	.	.	.	.	.	.	.	.	.	.	.	.	.	8d/	.	.
8BB-/	 3 8	-do-	.	8BB-/	-do-	.	nie-	.	żeś	.	do-	.	na	.	-wo-	.	na	.	Bo-	.	Swię-	.	8d\	-do-	.	nie-	.	żeś	.	do-	.	na	.	-wo-	.	na	.	Bo-	.	Swię-	.	8b-\	-do-	.	nie-	.	żeś	.	do-	.	na	.	-wo-	.	na	.	Bo-	.	Swię-	.	8dd\	-do-	.	nie-	.	żeś	.	do-	.	na	.	-wo-	.	na	.	Bo-	.	Swię-	.	.	.	.	.	8f/J	8dd\	8ddd\
4D/	 6 3	-bno	.	4BB-/	-bno	.	-bie-	.	iest	.	-byt-	.	wszyst-	.	-ce	.	ba-	.	-ga	.	-tey	.	4d\	-bno	.	-bie-	.	iest	.	-byt-	.	wszy-	.	-ce	.	ba-	.	-ga	.	-tey	.	4b-\	-bno	.	-bies-	.	iest	.	-byt-	.	wszyst-	.	-ce	.	ba-	.	-ga	.	-tey	.	4.b-\	-bno	.	-bies-	.	iest	.	-byt-	.	wszyst-	.	-ce	.	ba-	.	-ga	.	-tey	.	2B-/	.	2f\	.	8B-/L	4.b-\	4.bb-\
.	.	.	.	.	.	.	.	.	.	.	.	.	.	.	.	.	.	.	.	.	.	.	.	.	.	.	.	.	.	.	.	.	.	.	.	.	.	.	.	.	.	.	.	.	.	.	.	.	.	.	.	.	.	.	.	.	.	.	.	.	.	.	.	.	.	.	.	.	.	.	.	.	.	.	.	.	.	.	.	.	.	.	.	8d/	.	.
4BB-/	 5 3	zno-	.	4D/	zno-	.	-skiey	.	łas-	.	-ki	.	-kie	.	i	.	-wi	.	przy-	.	o-	.	4d\	zno-	.	-skiey	.	łas-	.	-ki	.	-stkie	.	i	.	-wił	.	przy-	.	o-	.	4b-\	zno-	.	-kiey	.	łas-	.	-ki	.	-kie	.	i	.	-wił	.	przy-	.	o-	.	.	.	.	.	.	.	.	.	.	.	.	.	.	.	.	.	.	.	.	.	.	.	.	8f/	.	.
.	.	.	.	.	.	.	.	.	.	.	.	.	.	.	.	.	.	.	.	.	.	.	.	.	.	.	.	.	.	.	.	.	.	.	.	.	.	.	.	.	.	.	.	.	.	.	.	.	.	.	.	.	.	.	.	.	.	.	.	.	8ff\	zno-	.	-kiey	.	łas-	.	-ki	.	-kie	.	i	.	-wił	.	przy-	.	o-	.	.	.	.	.	8B-/J	8ff\	8fff\
=9	=9	=9	=9	=9	=9	=9	=9	=9	=9	=9	=9	=9	=9	=9	=9	=9	=9	=9	=9	=9	=9	=9	=9	=9	=9	=9	=9	=9	=9	=9	=9	=9	=9	=9	=9	=9	=9	=9	=9	=9	=9	=9	=9	=9	=9	=9	=9	=9	=9	=9	=9	=9	=9	=9	=9	=9	=9	=9	=9	=9	=9	=9	=9	=9	=9	=9	=9	=9	=9	=9	=9	=9	=9	=9	=9	=9	=9	=9	=9	=9	=9	=9	=9	=9	=9	=9
!	!	!	!	!	!	!	!	!	!	!	!	!	!	!	!	!	!	!	!	!	!	!	!	!	!	!	!	!	!	!	!	!	!	!	!	!	!	!	!	!	!	!	!	!	!	!	!	!	!	!	!	!	!	!	!	!	!	!	!	!	!	!	!	!	!	!	!	!	!	!	!	!	!	!	!	!	!	!	!	!	!	!	!	!LO:LB:g=original	!LO:LB:g=original	!
2E-\	5 8 3	-się-	.	2E-\	-się-	.	roſ-	.	-ka-	.	mgle-	.	zie-	.	Tra-	.	szko-	.	-czy-	.	-pie-	.	4.e-\	-się-	.	ro-	.	-ka-	.	mgle-	.	zie-	.	Tra-	.	szko-	.	-czy-	.	-pie-	.	(4.b-\	-sie-	.	ro-	.	-ka-	.	mglie-	.	zie-	.	Tra-	.	szko-	.	-czy-	.	-pie-	.	4.gg\	-sie-	.	roſ-	.	-ka-	.	mgle-	.	zie-	.	Tra-	.	szko-	.	-czy-	.	-pie-	.	2E-/	.	2g\	.	4.b-\	4.gg\	4.ggg\
.	.	.	.	.	.	.	.	.	.	.	.	.	.	.	.	.	.	.	.	.	.	.	8B-\	.	.	.	.	.	.	.	.	.	.	.	.	.	.	.	.	.	.	8g\)	.	.	.	.	.	.	.	.	.	.	.	.	.	.	.	.	.	.	8ee-\	.	.	.	.	.	.	.	.	.	.	.	.	.	.	.	.	.	.	.	.	.	.	8a-\	8ee-\	8eee-\
2EE-/	8 5 3_	-my	.	2E-\	-my	.	-sy	.	-wy	.	-ją	.	-mie	.	-wy	.	-dy	.	-ną	.	-ki	.	2B-\	-my	.	-sy	.	-wy	.	-ią	.	-mie	.	-wy	.	-dy	.	-ną	.	-ki	.	2g\	-my	.	-sy	.	-wy	.	-ją	.	-mie	.	-wy	.	-dy	.	-ną	.	-ki	.	2ee-\	-my	.	-sy	.	-wy	.	-ją	.	-mie	.	-wy	.	-dy	.	-ną	.	-ki	.	2E-/	.	2g\	.	2g\	2ee-\	2eee-\
=10	=10	=10	=10	=10	=10	=10	=10	=10	=10	=10	=10	=10	=10	=10	=10	=10	=10	=10	=10	=10	=10	=10	=10	=10	=10	=10	=10	=10	=10	=10	=10	=10	=10	=10	=10	=10	=10	=10	=10	=10	=10	=10	=10	=10	=10	=10	=10	=10	=10	=10	=10	=10	=10	=10	=10	=10	=10	=10	=10	=10	=10	=10	=10	=10	=10	=10	=10	=10	=10	=10	=10	=10	=10	=10	=10	=10	=10	=10	=10	=10	=10	=10	=10	=10	=10	=10
!	!	!	!	!	!	!	!	!	!	!	!	!	!	!	!	!	!	!	!	!	!	!	!	!	!	!	!	!	!	!	!	!	!	!	!	!	!	!	!	!	!	!	!	!	!	!	!	!	!	!	!	!	!	!	!	!	!	!	!	!	!	!	!	!	!	!	!	!	!	!	!	!	!	!	!	!	!	!	!	!	!	!	!LO:DY:a	!	!	!
4E-\	 5 3	Zmi-	.	2E-\	Zmi-	.	Skrop	.	A	.	A	.	Niech	.	Wy-	.	Broń	.	Niech	.	Bądź	.	2B-\	Zmi-	.	Skrop	.	A	.	A	.	Niech	.	Wy-	.	Broń	.	Niech	.	Bądź	.	2g\	Zmi-	.	Skrop	.	A	.	A	.	Niech	.	Wy-	.	Broń	.	Niech	.	Bądź	.	2b-\	Zmi-	.	Skrop	.	A	.	A	.	Niech	.	Wy-	.	Broń	.	Niech	.	Bądź	.	2E-^>/	.	2e-^<\	sf	8g/L	2b-\	2bb-\
.	.	.	.	.	.	.	.	.	.	.	.	.	.	.	.	.	.	.	.	.	.	.	.	.	.	.	.	.	.	.	.	.	.	.	.	.	.	.	.	.	.	.	.	.	.	.	.	.	.	.	.	.	.	.	.	.	.	.	.	.	.	.	.	.	.	.	.	.	.	.	.	.	.	.	.	.	.	.	.	.	.	.	.	8e-/	.	.
4G\	 5 #3	-łuj	.	.	.	.	.	.	.	.	.	.	.	.	.	.	.	.	.	.	.	.	.	.	.	.	.	.	.	.	.	.	.	.	.	.	.	.	.	.	.	.	.	.	.	.	.	.	.	.	.	.	.	.	.	.	.	.	.	.	.	.	.	.	.	.	.	.	.	.	.	.	.	.	.	.	.	.	.	.	.	.	.	8g/	.	.
.	.	.	.	.	.	.	.	.	.	.	.	.	.	.	.	.	.	.	.	.	.	.	.	.	.	.	.	.	.	.	.	.	.	.	.	.	.	.	.	.	.	.	.	.	.	.	.	.	.	.	.	.	.	.	.	.	.	.	.	.	.	.	.	.	.	.	.	.	.	.	.	.	.	.	.	.	.	.	.	.	.	.	.	8e-/J	.	.
4A-\	 3 8	się	.	4.AA-/	-łuj	.	.	.	w mo-	.	lu-	.	cie	.	-słu-	.	od	.	u-	.	po-	.	4c\	-łuj	.	.	.	w mo-	.	lu-	.	cię	.	-słu-	.	od	.	u-	.	po-	.	4a-\	-łuj	.	.	.	w mo-	.	lu-	.	cię	.	-słu-	.	od	.	u-	.	po-	.	4cc\	-łuj	.	.	.	w mo-	.	lu-	.	Cię	.	-słu-	.	od	.	u-	.	po-	.	4E-/	.	4e-\	.	4a-\	4cc\	4ccc\
.	 8 3	.	.	.	.	.	.	.	.	.	.	.	.	.	.	.	.	.	.	.	.	.	.	.	.	.	.	.	.	.	.	.	.	.	.	.	.	.	.	.	.	.	.	.	.	.	.	.	.	.	.	.	.	.	.	.	.	.	.	.	.	.	.	.	.	.	.	.	.	.	.	.	.	.	.	.	.	.	.	.	.	.	.	.	.	.
4AA-/	 6 8	.	.	.	.	.	.	.	.	.	.	.	.	.	.	.	.	.	.	.	.	.	4f\	się	.	ob-	.	-cy	.	-dzkie	.	wy-	.	-chay	.	po-	.	-ro-	.	-chwa-	.	8cc\L	się	.	ob-	.	-cy	.	-dzkie	.	wy-	.	-chaj	.	po-	.	-ro-	.	-chwa-	.	8aa-\L	się	.	ob-	.	-cy	.	-dzkie	.	wy-	.	-chay	.	po-	.	-ro-	.	-chwa-	.	4r	.	4r	.	8cc\L	8aa-\L	4ggg\
.	.	.	.	8AA-/	się	.	ob-	.	-cy	.	-dzkie	.	wy-	.	-chay	.	po-	.	-ro-	.	-chwa-	.	.	.	.	.	.	.	.	.	.	.	.	.	.	.	.	.	.	.	.	8a-\J	.	.	.	.	.	.	.	.	.	.	.	.	.	.	.	.	.	.	8ff\J	.	.	.	.	.	.	.	.	.	.	.	.	.	.	.	.	.	.	.	.	.	.	8a-\J	8ff\J	.
=11	=11	=11	=11	=11	=11	=11	=11	=11	=11	=11	=11	=11	=11	=11	=11	=11	=11	=11	=11	=11	=11	=11	=11	=11	=11	=11	=11	=11	=11	=11	=11	=11	=11	=11	=11	=11	=11	=11	=11	=11	=11	=11	=11	=11	=11	=11	=11	=11	=11	=11	=11	=11	=11	=11	=11	=11	=11	=11	=11	=11	=11	=11	=11	=11	=11	=11	=11	=11	=11	=11	=11	=11	=11	=11	=11	=11	=11	=11	=11	=11	=11	=11	=11	=11	=11	=11
!	!	!	!	!	!	!	!	!	!	!	!	!	!	!	!	!	!	!	!	!	!	!	!	!	!	!	!	!	!	!	!	!	!	!	!	!	!	!	!	!	!	!	!	!	!	!	!	!	!	!	!	!	!	!	!	!	!	!	!	!	!	!	!	!	!	!	!	!	!	!	!	!	!	!	!	!	!	!	!	!LO:LB:g=original	!	!LO:LB:g=original	!	!	!	!
.	.	.	.	.	.	.	.	.	.	.	.	.	.	.	.	.	.	.	.	.	.	.	.	.	.	.	.	.	.	.	.	.	.	.	.	.	.	.	.	.	.	.	.	.	.	.	.	.	.	.	.	.	.	.	.	.	.	.	.	.	4qqee-/	.	.	.	.	.	.	.	.	.	.	.	.	.	.	.	.	.	.	.	.	.	.	.	8qqee-/	8qqeee-/
4B-\	 3 8	Zmi-	.	4BB-/	zmi-	.	-fi-	.	two-	.	ser-	.	-chwa-	.	twój	.	-wo-	.	-dza-	.	-lo-	.	4.B-\	zmi-	.	-fi-	.	two-	.	ser-	.	-chwa-	.	twój	.	-wo-	.	-dza-	.	-lo-	.	2f\	zmi-	.	-fi-	.	two-	.	ser-	.	-chwa-	.	twój	.	-wo-	.	-dza-	.	-lo-	.	4.dd\	zmi-	.	-fi-	.	Two-	.	ser-	.	-chwa-	.	twój	.	-wo-	.	-dza-	.	-lo-	.	2B-/	.	2f\	.	2f/	4.dd\	4.ddd\
4F\	 5 #3	-łuy	.	4AAn/	.	.	.	.	.	.	.	.	.	.	.	.	.	.	.	.	.	.	.	.	.	.	.	.	.	.	.	.	.	.	.	.	.	.	.	.	.	.	.	.	.	.	.	.	.	.	.	.	.	.	.	.	.	.	.	.	.	.	.	.	.	.	.	.	.	.	.	.	.	.	.	.	.	.	.	.	.	.	.	.	.	.
.	.	.	.	.	.	.	.	.	.	.	.	.	.	.	.	.	.	.	.	.	.	.	8An\	.	.	.	.	.	.	.	.	.	.	.	.	.	.	.	.	.	.	.	.	.	.	.	.	.	.	.	.	.	.	.	.	.	.	.	.	.	8cc\	.	.	.	.	.	.	.	.	.	.	.	.	.	.	.	.	.	.	.	.	.	.	.	8cc\	8ccc\
.	.	.	.	.	.	.	.	.	.	.	.	.	.	.	.	.	.	.	.	.	.	.	.	.	.	.	.	.	.	.	.	.	.	.	.	.	.	.	.	.	.	4qqe-/	.	.	.	.	.	.	.	.	.	.	.	.	.	.	.	.	.	.	.	.	.	.	.	.	.	.	.	.	.	.	.	.	.	.	.	.	.	.	.	.	.	.	.	.
2BB-;/	.	.	.	2BB-;/	-łuj	.	-cie	.	-jey	.	-ca	.	-la	.	lud	.	-dzi	.	-je	.	-ny	.	2B-;\	-łuj	.	-cie	.	-jey	.	-ca	.	-la	.	lud	.	-dzi	.	-je	.	-ny	.	2d;\	-łuj	.	-cie	.	-jey	.	-ca	.	-la	.	lud	.	-dzi	.	-je	.	-ny	.	2b-;\	-łuj	.	-cie	.	-jey	.	-ca	.	-la	.	lud	.	-dzi	.	-je	.	-ny	.	2B-;/	.	2B-;/	.	2B-;/	2b-;\	2bb-;\
=12	=12	=12	=12	=12	=12	=12	=12	=12	=12	=12	=12	=12	=12	=12	=12	=12	=12	=12	=12	=12	=12	=12	=12	=12	=12	=12	=12	=12	=12	=12	=12	=12	=12	=12	=12	=12	=12	=12	=12	=12	=12	=12	=12	=12	=12	=12	=12	=12	=12	=12	=12	=12	=12	=12	=12	=12	=12	=12	=12	=12	=12	=12	=12	=12	=12	=12	=12	=12	=12	=12	=12	=12	=12	=12	=12	=12	=12	=12	=12	=12	=12	=12	=12	=12	=12	=12
4G\	6 3 8	o	.	4E-\	o	.	zwię-	.	prze-	.	w ża-	.	Bo-	.	o	.	od	.	i	.	te-	.	4.B-\	o	.	zwię-	.	prze-	.	w ża-	.	Bo-	.	o	.	od	.	i	.	te-	.	4.g\	o	.	zwię-	.	prze-	.	w ża-	.	Bo-	.	o	.	od	.	i	.	te-	.	4.ee-\	o	.	zwię-	.	prze-	.	w ża-	.	Bo-	.	o	.	od	.	i	.	te-	.	2.E-/	.	2.e-\	.	4.g/	4.ee-\	4.eee-\
4E-\	 5 3	deszcze	.	4GG/	deszcz	.	-dłe	.	-dziw-	.	-lach	.	-ga	.	Bo-	.	wy-	.	trzo-	.	-raz	.	.	.	.	.	.	.	.	.	.	.	.	.	.	.	.	.	.	.	.	.	.	.	.	.	.	.	.	.	.	.	.	.	.	.	.	.	.	.	.	.	.	.	.	.	.	.	.	.	.	.	.	.	.	.	.	.	.	.	.	.	.	.	.	.
.	.	.	.	.	.	.	.	.	.	.	.	.	.	.	.	.	.	.	.	.	.	.	8B-\	deszcz	.	-dłe	.	-dziw-	.	-lach	.	-ga	.	Bo-	.	wy-	.	trzo-	.	-raz	.	8g\	deszcz	.	-dłe	.	-dziw-	.	-lach	.	-ga	.	Bo-	.	wy-	.	trzo-	.	-raz	.	8b-\	deszcz	.	-dłe	.	-dziw-	.	-lach	.	-ga	.	Bo-	.	wy-	.	trzo-	.	-raz	.	.	.	.	.	8g/	8b-\	8bb-\
4A-\	 3 8	cię	.	4AA-/	Cie	.	w po-	.	-ne	.	swych	.	lu-	.	-że	.	-le-	.	-dy	.	i	.	4c\	Cie	.	w po-	.	-ne	.	swych	.	lu-	.	-że	.	-le-	.	-dy	.	i	.	4a-\	Cie	.	w po-	.	-ne	.	swych	.	lu-	.	-że	.	-le-	.	-dy	.	i	.	4cc\	Cie	.	w po-	.	-ne	.	swych	.	lu-	.	-że	.	-le-	.	-dy	.	i	.	.	.	.	.	4a-\	4cc\	4ccc\
4F\	 8 3	pro-	.	4A-\	pro-	.	-lach	.	są	.	tru-	.	-dzkie	.	łas-	.	-wu	.	nie	.	na	.	4c\	pro-	.	-lach	.	są	.	tru-	.	-dzkie	.	łas-	.	-wu	.	nie	.	na	.	8cc\L	pro-	.	-lach	.	są	.	tru-	.	-dzkie	.	łas-	.	-wu	.	nie	.	na	.	4ff\	pro-	.	-lach	.	są	.	tru-	.	-dzkie	.	łas-	.	-wu	.	nie	.	na	.	4f\	.	4a-\	.	8cc\L	4ff\	4fff\
.	.	.	.	.	.	.	.	.	.	.	.	.	.	.	.	.	.	.	.	.	.	.	.	.	.	.	.	.	.	.	.	.	.	.	.	.	.	.	.	.	.	8a-\J	.	.	.	.	.	.	.	.	.	.	.	.	.	.	.	.	.	.	.	.	.	.	.	.	.	.	.	.	.	.	.	.	.	.	.	.	.	.	.	.	.	8a-\J	.	.
=13	=13	=13	=13	=13	=13	=13	=13	=13	=13	=13	=13	=13	=13	=13	=13	=13	=13	=13	=13	=13	=13	=13	=13	=13	=13	=13	=13	=13	=13	=13	=13	=13	=13	=13	=13	=13	=13	=13	=13	=13	=13	=13	=13	=13	=13	=13	=13	=13	=13	=13	=13	=13	=13	=13	=13	=13	=13	=13	=13	=13	=13	=13	=13	=13	=13	=13	=13	=13	=13	=13	=13	=13	=13	=13	=13	=13	=13	=13	=13	=13	=13	=13	=13	=13	=13	=13
.	.	.	.	.	.	.	.	.	.	.	.	.	.	.	.	.	.	.	.	.	.	.	.	.	.	.	.	.	.	.	.	.	.	.	.	.	.	.	.	.	.	8qqg/	.	.	.	.	.	.	.	.	.	.	.	.	.	.	.	.	.	.	4qqee-/	.	.	.	.	.	.	.	.	.	.	.	.	.	.	.	.	.	.	.	.	4qqg/	.	4qqg/	4qqee-/	8qqeee-/
4B-\	 4 8	-się-	.	4B-\	-się-	.	kło-	.	spra-	.	-chle-	.	ple-	.	-ka-	.	wo-	.	gi-	.	wie-	.	2B-\	-się-	.	kło-	.	spra-	.	-chle-	.	ple-	.	-ka-	.	wo-	.	gi-	.	wie-	.	2f\	-sie-	.	kło-	.	spra-	.	-chle-	.	ple-	.	-ka-	.	wo-	.	gi-	.	wie-	.	2dd\	-sie-	.	kło-	.	spra-	.	-chle-	.	ple-	.	-ka-	.	wo-	.	gi-	.	wie-	.	2B-/	.	2f\	.	2f/	2dd\	2ddd\
4BB-/	3 4 5	.	.	4BB-/	.	.	.	.	.	.	.	.	.	.	.	.	.	.	.	.	.	.	.	.	.	.	.	.	.	.	.	.	.	.	.	.	.	.	.	.	.	.	.	.	.	.	.	.	.	.	.	.	.	.	.	.	.	.	.	.	.	.	.	.	.	.	.	.	.	.	.	.	.	.	.	.	.	.	.	.	.	.	.	.	.	.
.	.	.	.	.	.	.	.	.	.	.	.	.	.	.	.	.	.	.	.	.	.	.	.	.	.	.	.	.	.	.	.	.	.	.	.	.	.	.	.	.	.	.	.	.	.	.	.	.	.	.	.	.	.	.	.	.	.	.	.	.	.	.	.	.	.	.	.	.	.	.	.	.	.	.	.	.	.	.	.	.	.	.	.	.	16qqee-/LL	16qqeee-/LL
.	.	.	.	.	.	.	.	.	.	.	.	.	.	.	.	.	.	.	.	.	.	.	.	.	.	.	.	.	.	.	.	.	.	.	.	.	.	.	.	.	.	.	.	.	.	.	.	.	.	.	.	.	.	.	.	.	.	.	.	.	.	.	.	.	.	.	.	.	.	.	.	.	.	.	.	.	.	.	.	.	.	.	.	.	16qqff/JJ	16qqfff/JJ
2E-/	8 5 3	-my	.	2E-\	-my.	.	-sy	.	-wy	.	-ią	.	-mie	.	-wy	.	-dy	.	-ną	.	-ki	.	2B-;\	-my.	.	-sy.	.	-wy	.	-ią.	.	-mie.	.	-wy	.	-dy	.	-ną	.	-ki	.	2g\	-my.	.	-sy.	.	-wy	.	-ją	.	-mie	.	-wy	.	-dy	.	-ną	.	-ki.	.	2ee-\	-my.	.	-sy.	.	-wy	.	-ią	.	-mię	.	-wy	.	-dy	.	-ną	.	-ki Amen.	.	2G/	.	2e-\	.	2g/	2ee-\	2eee-\
==	==	==	==	==	==	==	==	==	==	==	==	==	==	==	==	==	==	==	==	==	==	==	==	==	==	==	==	==	==	==	==	==	==	==	==	==	==	==	==	==	==	==	==	==	==	==	==	==	==	==	==	==	==	==	==	==	==	==	==	==	==	==	==	==	==	==	==	==	==	==	==	==	==	==	==	==	==	==	==	==	==	==	==	==	==	==
*-	*-	*-	*-	*-	*-	*-	*-	*-	*-	*-	*-	*-	*-	*-	*-	*-	*-	*-	*-	*-	*-	*-	*-	*-	*-	*-	*-	*-	*-	*-	*-	*-	*-	*-	*-	*-	*-	*-	*-	*-	*-	*-	*-	*-	*-	*-	*-	*-	*-	*-	*-	*-	*-	*-	*-	*-	*-	*-	*-	*-	*-	*-	*-	*-	*-	*-	*-	*-	*-	*-	*-	*-	*-	*-	*-	*-	*-	*-	*-	*-	*-	*-	*-	*-	*-	*-
!!!system-decoration: s1,s2,s3,s4,s5,s6,s7,s8,s9,s10
!!!RDF**kern: > = above
!!!RDF**kern: < = below
!!!AIN: 1 alto 2 clars 1 cor 2 empty 1 flt 1 organ 1 tenor 1 vox
!!!ENC: Andrzej Borzym
!!!END: 2020-03-09
!!!ENC: Marta Lawrence
!!!END: 2020-04-06
